X: 23
T: Pollonesse #23
M: 3/4
L: 1/16
K: C
Q:120
c2cd e2ef g4|e2ce d2Bd c4|E2EG F2FA G2Gc| BcdB c4C4:|
efed c2c2 c4|d2dc B2B2 B4| c2cB ABcd e2c2| BAG^F G4 G,4:|

